src/1-subject/ease.svg

<svg width="1300" height="1000" viewBox="0 0 1300 1000" fill="none" xmlns="http://www.w3.org/2000/svg"><path d="M383.074 469.162c0-1.662 5.902-57.127 23.43-93.162 15.049-29.175 39.06-33.545 77.179-33.979 36.975-.426 67.042 5.516 82.944 33.197 15.441 36.104 21.279 91.186 21.279 91.186l-3.807 106.336 2.144 32.258c.813 12.227-10.681 21.601-22.494 18.345a2.226 2.226 0 0 1-1.565-1.595l-5.68-22.248 8 118.5-1.5 156 15.598 6.406a20.001 20.001 0 0 1 12.402 18.501V900h-93.5l1.5-18a9.97 9.97 0 0 1-4.439-8.408L496.004 746l-9.5-125-9 125v128a10 10 0 0 1-4 8l1.5 18H383c0-7.632 4.401-14.58 11.301-17.842l16.203-7.658-2-156.5 6.5-118.5-5.869 22.986a.917.917 0 0 1-.642.657c-12.056 3.376-23.881-6.04-23.292-18.546l1.519-32.227s-3.646-59.37-3.646-103.208Z" fill="#fff"/><path d="M390.07 472.47s5.44-56.683 21.98-91.955c14.201-28.557 36.989-32.07 72.96-32.495 34.892-.416 63.264 5.4 78.27 32.495 14.572 35.339 20.08 89.255 20.08 89.255l-3.592 104.085 1.438 31.419c.306 6.7-5.021 12.31-11.727 12.349a1.476 1.476 0 0 1-1.445-1.131l-10.316-42.999L547.54 468.08l-6.886-48.961a1.276 1.276 0 0 0-2.534.287L544 487.5l3 30.5 3 55.855 9.5 143.153-1.5 161.007 21.216 9.112a10.001 10.001 0 0 1 6.052 9.022l.064 3.851H504.5l2.09-22.01a5.003 5.003 0 0 1-5.033-5.05l1.198-128.82-12.532-147.284a2.86 2.86 0 0 0-5.698.01L472.49 744.135l-.242 129.575a4.317 4.317 0 0 1-4.348 4.31l1.991 21.98H390c0-5.192 2.968-9.927 7.641-12.189l20.179-9.771-2.16-161.02L423 573.5l2.5-55.5 3-30 5.395-68.664a1.228 1.228 0 0 0-2.442-.254l-6.463 50.008-9.49 104.403-10.216 43.651a.63.63 0 0 1-.613.486c-7.175 0-12.898-5.989-12.572-13.157l1.411-30.98-3.45-101.023h.01Z" fill="#000"/><path d="M474.324 340c3.926 1.471 11.257 1.995 13.176 2 0 0 8.646-.072 13.682-2 5.676-2.172 8.837-4.293 12.669-8.96 2.619-3.188 4.662-8.697 5.57-11.42.358-1.076.606-2.181.795-3.3l4.277-25.32s.516-3.649.507-6c-.02-5.591-.777-8.874-3.041-14-2.325-5.265-4.358-8.083-8.614-12-4.537-4.176-7.807-6-13.683-7.968-4.561-1.528-7.345-1.993-12.162-2.032-5.17.175-7.095.5-12.029 2.032-4.938 1.649-9.979 4.57-13.816 7.968-3.836 3.398-6.521 7.42-8.614 12-2.094 4.58-3.039 9.002-3.041 14 .001 1.885.208 4.137.507 6l5.084 24.993a24.33 24.33 0 0 0 1.005 3.605c1.072 2.894 3.346 8.603 5.566 11.402 3.047 3.841 7.466 7.241 12.162 9Z" fill="#fff"/><path d="M476.432 334.258c3.298 1.281 9.456 1.738 11.068 1.742 0 0 7.263-.063 11.493-1.742 4.767-1.892 7.423-3.739 10.642-7.804 2.15-2.714 3.839-7.36 4.625-9.782.339-1.045.572-2.118.748-3.202l3.566-21.889s.433-3.178.426-5.226c-.017-4.87-.652-7.729-2.554-12.194-1.953-4.585-3.662-7.039-7.237-10.451-3.811-3.637-6.558-5.226-11.493-6.94-3.832-1.331-6.17-1.736-10.216-1.77-4.342.152-5.959.435-10.104 1.77-4.148 1.436-8.383 3.98-11.605 6.94-3.223 2.959-5.478 6.462-7.237 10.451-1.759 3.99-2.552 7.841-2.554 12.194 0 1.641.175 3.603.426 5.226l4.234 21.584c.234 1.19.535 2.363.946 3.504.924 2.57 2.789 7.37 4.61 9.75 2.56 3.346 6.272 6.307 10.216 7.839Z" fill="#000"/></svg>

<svg width="1300" height="1000" viewBox="0 0 1300 1000" fill="none" xmlns="http://www.w3.org/2000/svg">
<path d="M383.074 469.162C383.074 467.5 388.976 412.035 406.504 376C421.553 346.825 445.564 342.455 483.683 342.021C520.658 341.595 550.725 347.537 566.627 375.218C582.068 411.322 587.906 466.404 587.906 466.404L584.099 572.74L586.243 604.998C587.056 617.225 575.562 626.599 563.749 623.343C562.979 623.131 562.382 622.522 562.184 621.748L556.504 599.5L564.504 718L563.004 874L578.602 880.406C586.105 883.488 591.004 890.796 591.004 898.907V900H497.504L499.004 882C496.197 880.129 494.527 876.965 494.565 873.592L496.004 746L486.504 621L477.504 746V874C477.504 877.148 476.022 880.111 473.504 882L475.004 900H383C383 892.368 387.401 885.42 394.301 882.158L410.504 874.5L408.504 718L415.004 599.5L409.135 622.486C409.054 622.804 408.809 623.055 408.493 623.143C396.437 626.519 384.612 617.103 385.201 604.597L386.72 572.37C386.72 572.37 383.074 513 383.074 469.162Z" fill="white"/>
<path d="M390.07 472.47C390.07 472.47 395.51 415.787 412.05 380.515C426.251 351.958 449.039 348.445 485.01 348.02C519.902 347.604 548.274 353.42 563.28 380.515C577.852 415.854 583.36 469.77 583.36 469.77L579.768 573.855L581.206 605.274C581.512 611.974 576.185 617.584 569.479 617.623C568.793 617.627 568.194 617.159 568.034 616.492L557.718 573.493L547.54 468.08L540.654 419.119C540.566 418.489 540.027 418.02 539.391 418.02C538.643 418.02 538.055 418.661 538.12 419.406L544 487.5L547 518L550 573.855L559.5 717.008L558 878.015L579.216 887.127C582.833 888.681 585.202 892.212 585.268 896.149L585.332 900H504.5L506.59 877.99C503.797 878.007 501.531 875.733 501.557 872.94L502.755 744.12L490.223 596.836C490.097 595.357 488.859 594.22 487.374 594.22C485.886 594.22 484.647 595.363 484.525 596.846L472.49 744.135L472.248 873.71C472.244 876.104 470.293 878.037 467.9 878.02L469.891 900H390C390 894.808 392.968 890.073 397.641 887.811L417.82 878.04L415.66 717.02L423 573.5L425.5 518L428.5 488L433.895 419.336C433.951 418.617 433.381 418.005 432.66 418.011C432.047 418.016 431.531 418.474 431.453 419.082L424.99 469.09L415.5 573.493L405.284 617.144C405.217 617.429 404.963 617.63 404.671 617.63C397.496 617.63 391.773 611.641 392.099 604.473L393.51 573.493L390.06 472.47H390.07Z" fill="black"/>
<path d="M474.324 340C478.25 341.471 485.581 341.995 487.5 342C487.5 342 496.146 341.928 501.182 340C506.858 337.828 510.019 335.707 513.851 331.04C516.47 327.852 518.513 322.343 519.421 319.62C519.779 318.544 520.027 317.439 520.216 316.32L524.493 291C524.493 291 525.009 287.351 525 285C524.98 279.409 524.223 276.126 521.959 271C519.634 265.735 517.601 262.917 513.345 259C508.808 254.824 505.538 253 499.662 251.032C495.101 249.504 492.317 249.039 487.5 249C482.33 249.175 480.405 249.5 475.471 251.032C470.533 252.681 465.492 255.602 461.655 259C457.819 262.398 455.134 266.42 453.041 271C450.947 275.58 450.002 280.002 450 285C450.001 286.885 450.208 289.137 450.507 291L455.591 315.993C455.84 317.218 456.162 318.425 456.596 319.598C457.668 322.492 459.942 328.201 462.162 331C465.209 334.841 469.628 338.241 474.324 340Z" fill="white"/>
<path d="M476.432 334.258C479.73 335.539 485.888 335.996 487.5 336C487.5 336 494.763 335.937 498.993 334.258C503.76 332.366 506.416 330.519 509.635 326.454C511.785 323.74 513.474 319.094 514.26 316.672C514.599 315.627 514.832 314.554 515.008 313.47L518.574 291.581C518.574 291.581 519.007 288.403 519 286.355C518.983 281.485 518.348 278.626 516.446 274.161C514.493 269.576 512.784 267.122 509.209 263.71C505.398 260.073 502.651 258.484 497.716 256.77C493.884 255.439 491.546 255.034 487.5 255C483.158 255.152 481.541 255.435 477.396 256.77C473.248 258.206 469.013 260.75 465.791 263.71C462.568 266.669 460.313 270.172 458.554 274.161C456.795 278.151 456.002 282.002 456 286.355C456 287.996 456.175 289.958 456.426 291.581L460.66 313.165C460.894 314.355 461.195 315.528 461.606 316.669C462.53 319.239 464.395 324.039 466.216 326.419C468.776 329.765 472.488 332.726 476.432 334.258Z" fill="black"/>
</svg>
